src/pages/elements/pictograms/images/eefe0e5e33e97c8c6175b600f82d1adb (1).svg

<svg width="32px" height="32px" viewBox="0 0 32 32" version="1.1" xmlns="http://www.w3.org/2000/svg" xmlns:xlink="http://www.w3.org/1999/xlink">
    <!-- Generator: Sketch 51.3 (57544) - http://www.bohemiancoding.com/sketch -->
    <desc>Created with Sketch.</desc>
    <defs>
        <path d="M16,8 C12.6862915,8 10,10.6862915 10,14 L10,22 C10,25.3137085 12.6862915,28 16,28 C19.3137085,28 22,25.3137085 22,22 L22,14 C22,10.6862915 19.3137085,8 16,8 Z M16,26 C13.790861,26 12,24.209139 12,22 L20,22 C20,24.209139 18.209139,26 16,26 Z M20,20 L12,20 L12,16 L20,16 L20,20 Z M12,14 C12,11.790861 13.790861,10 16,10 C18.209139,10 20,11.790861 20,14 L12,14 Z M30.66,17.21 L24,11 L24,20.1 C24,22.309139 25.790861,24.1 28,24.1 C30.209139,24.1 32,22.309139 32,20.1 C31.994144,18.9877975 31.5051014,17.9330715 30.66,17.21 Z M28,22 C26.933333,22.0013341 26.0533326,21.1653337 26,20.1 L26,15.6 L29.3,18.67 C29.7370031,19.0167458 29.9942053,19.5421732 30,20.1 C29.9466674,21.1653337 29.066667,22.0013341 28,22 Z M4.25215418e-16,20.1 C6.95756919e-16,22.309139 1.790861,24.1 4,24.1 C6.209139,24.1 8,22.309139 8,20.1 L8,11 L1.34,17.21 C0.494898551,17.9330715 0.00585604418,18.9877975 0,20.1 Z M2.66,18.71 L6,15.6 L6,20.1 C6,21.2045695 5.1045695,22.1 4,22.1 C2.8954305,22.1 2,21.2045695 2,20.1 C2.007735,19.5628135 2.24860738,19.0555217 2.66,18.71 Z M11.5,2 C12.3284271,2 13,2.67157288 13,3.5 C13,4.32842712 12.3284271,5 11.5,5 C10.6715729,5 10,4.32842712 10,3.5 C10,2.67157288 10.6715729,2 11.5,2 Z M11.5,0 C9.56700338,0 8,1.56700338 8,3.5 C8,5.43299662 9.56700338,7 11.5,7 C13.4329966,7 15,5.43299662 15,3.5 C15,1.56700338 13.4329966,8.8817842e-16 11.5,0 Z M20.5,2 C21.3284271,2 22,2.67157288 22,3.5 C22,4.32842712 21.3284271,5 20.5,5 C19.6715729,5 19,4.32842712 19,3.5 C19,2.67157288 19.6715729,2 20.5,2 Z M20.5,0 C18.5670034,0 17,1.56700338 17,3.5 C17,5.43299662 18.5670034,7 20.5,7 C22.4329966,7 24,5.43299662 24,3.5 C24,1.56700338 22.4329966,8.8817842e-16 20.5,0 Z" id="path-1"></path>
    </defs>
    <g id="Page-1" stroke="none" stroke-width="1" fill="none" fill-rule="evenodd">
        <g id="Grid_Desktop_1312px-Copy" transform="translate(-353.000000, -910.000000)">
            <g id="icon/image/bee/32" transform="translate(353.000000, 908.000000)">
                <g id="bee" stroke-width="1" fill-rule="evenodd" transform="translate(0.000000, 2.000000)">
                    <mask id="mask-2" fill="white">
                        <use xlink:href="#path-1"></use>
                    </mask>
                    <use id="Mask" fill="#000000" fill-rule="nonzero" xlink:href="#path-1"></use>
                    <g id="color/black" mask="url(#mask-2)">
                        <g transform="translate(0.000000, -2.000000)"></g>
                    </g>
                </g>
                <rect id="transparent-rectangle" x="0" y="0" width="32" height="32"></rect>
            </g>
        </g>
    </g>
</svg>

<svg xmlns="http://www.w3.org/2000/svg" xmlns:xlink="http://www.w3.org/1999/xlink" viewBox="0 0 32 32"><defs><path d="M16 8a6 6 0 00-6 6v8a6 6 0 1012 0v-8a6 6 0 00-6-6zm0 18a4 4 0 01-4-4h8a4 4 0 01-4 4zm4-6h-8v-4h8v4zm-8-6a4 4 0 118 0h-8zm18.66 3.21L24 11v9.1a4 4 0 108 0 3.83 3.83 0 00-1.34-2.89zM28 22a2 2 0 01-2-1.9v-4.5l3.3 3.07c.437.347.694.872.7 1.43a2 2 0 01-2 1.9zM0 20.1a4 4 0 108 0V11l-6.66 6.21A3.83 3.83 0 000 20.1zm2.66-1.39L6 15.6v4.5a2 2 0 11-4 0 1.85 1.85 0 01.66-1.39zM11.5 2a1.5 1.5 0 110 3 1.5 1.5 0 010-3zm0-2a3.5 3.5 0 100 7 3.5 3.5 0 000-7zm9 2a1.5 1.5 0 110 3 1.5 1.5 0 010-3zm0-2a3.5 3.5 0 100 7 3.5 3.5 0 000-7z" id="a"/></defs><g fill="none" fill-rule="evenodd"><use fill="#000" fill-rule="nonzero" xlink:href="#a"/><path d="M0-2h32v32H0z"/></g></svg>
